rospo-icon-theme-classic-common/64x64/places/folder-grey-java.svg

<svg height="64" width="64" xmlns="http://www.w3.org/2000/svg"><rect height="32" opacity=".2" rx="2.5" width="50" x="7" y="24"/><path d="m7 44.5c0 1.385 1.115 2.5 2.5 2.5h45c1.385 0 2.5-1.115 2.5-2.5v-27c0-1.385-1.115-2.5-2.5-2.5h-25.5v-2.5c0-1.385-1.115-2.5-2.5-2.5h-17c-1.385 0-2.5 1.115-2.5 2.5" fill="#727272"/><rect height="32" opacity=".2" rx="2.5" width="50" x="7" y="22"/><rect fill="#e4e4e4" height="20" rx="2.5" width="44" x="10" y="18"/><rect fill="#8e8e8e" height="32" rx="2.5" width="50" x="7" y="23"/><path d="m9.5 10c-1.385 0-2.5 1.115-2.5 2.5v1c0-1.385 1.115-2.5 2.5-2.5h17c1.385 0 2.5 1.115 2.5 2.5v-1c0-1.385-1.115-2.5-2.5-2.5zm19.5 5v1h25.5c1.39 0 2.5 1.115 2.5 2.5v-1c0-1.385-1.11-2.5-2.5-2.5z" fill="#fff" opacity=".1"/><path d="m29 27s1.154.706.34 2.562c-1.232 2.798 1.137 3.438 1.137 3.438s-.753-.656.25-2.965c1.108-2.558-1.727-3.035-1.727-3.035zm4.199 3.855s-2.097.932-.746 3.477c.893 1.687-.098 2.523-.098 2.523s2.534-.835 1.312-3.164c-1.098-2.105-.468-2.836-.468-2.836zm-6.528.145s-1.502 1.599-.015 3.562c.983 1.307.34 2.438.34 2.438s1.861-1.651.515-3.457c-1.215-1.63-.84-2.543-.84-2.543zm.325 6h-4.996l3 12h11l .679-1.969c.333.083.677.141 1.035.141 2.366-.001 4.286-1.521 4.286-3.888 0-2.008-1.387-3.68-3.252-4.144l.395-2.14-12.148-.001zm11.41 3.519c.016.002.031.005.047.008.762.205 1.048 1.605.64 3.129-.399 1.486-1.314 2.546-2.07 2.399z" fill="#323232"/></svg>

<svg xmlns="http://www.w3.org/2000/svg" width="64" height="64" version="1.1">
 <rect style="opacity:0.2" width="50" height="32" x="7" y="24" rx="2.5" ry="2.5"/>
 <path style="fill:#727272" d="M 7,44.5 C 7,45.885 8.115,47 9.5,47 H 54.5 C 55.885,47 57,45.885 57,44.5 V 17.5 C 57,16.115 55.885,15 54.5,15 H 29 V 12.5 C 29,11.115 27.885,10 26.5,10 H 9.5 C 8.115,10 7,11.115 7,12.5"/>
 <rect style="opacity:0.2" width="50" height="32" x="7" y="22" rx="2.5" ry="2.5"/>
 <rect style="fill:#dcdcdc" width="44" height="20" x="10" y="18" rx="2.5" ry="2.5"/>
 <rect style="fill:#8e8e8e" width="50" height="32" x="7" y="23" rx="2.5" ry="2.5"/>
 <path style="opacity:0.1;fill:#ffffff" d="M 9.5,10 C 8.115,10 7,11.115 7,12.5 V 13.5 C 7,12.115 8.115,11 9.5,11 H 26.5 C 27.885,11 29,12.115 29,13.5 V 12.5 C 29,11.115 27.885,10 26.5,10 Z M 29,15 V 16 H 54.5 C 55.89,16 57,17.115 57,18.5 V 17.5 C 57,16.115 55.89,15 54.5,15 Z"/>
 <path style="fill:#323232" d="M 29,27 C 29,27 30.154,27.706 29.34,29.562 28.108,32.36 30.477,33 30.477,33 30.477,33 29.724,32.344 30.727,30.035 31.835,27.477 29,27 29,27 Z M 33.199,30.855 C 33.199,30.855 31.102,31.787 32.453,34.332 33.346,36.019 32.355,36.855 32.355,36.855 32.355,36.855 34.889,36.02 33.667,33.691 32.569,31.586 33.199,30.855 33.199,30.855 Z M 26.671,31 C 26.671,31 25.169,32.599 26.656,34.562 27.639,35.869 26.996,37 26.996,37 26.996,37 28.857,35.349 27.511,33.543 26.296,31.913 26.671,31 26.671,31 Z M 26.996,37 H 22 L 25,49 H 36 L 36.679,47.031 C 37.012,47.114 37.356,47.172 37.714,47.172 40.08,47.171 42,45.651 42,43.284 42,41.276 40.613,39.604 38.748,39.14 L 39.143,37 26.995,36.999 Z M 38.406,40.519 C 38.422,40.521 38.437,40.524 38.453,40.527 39.215,40.732 39.501,42.132 39.093,43.656 38.694,45.142 37.779,46.202 37.023,46.055 Z"/>
</svg>
